X:1
T:Marchioness of Huntley's [1] Strathspey, The
T:Marchioness of Huntley's [1] Strathspey, The
T:William Marshall
C:William Marshall
L:1/8
M:2/2
K:A
V:1 treble 
V:1
 A,>CEC D<F TE2 | F<BB>c (d/c/).B/.A/ (G/F/).E/.D/ | C>DEC D<F TE2 | F>B (A/G/).F/.E/{G} A2 A, :| %4
 d | c<eA>e c>e (d/c/).B/.A/ | G<BE>B G>BE>B | c<eA>e c>e (d/c/).B/.A/ | G<BE3/2{GA}A{G} A3 e/d/ | %9
 c<eA>e c<e{g} a2 | F<BB>c (d/c/).B/.A/ (G/F/).E/.D/ | C>DEC D<F E2 | F>B (A/G/).F/.E/{G} A2 A,2 || %13

